Newaita-dark/actions/32/view-catalog.svg

<svg height="32" viewBox="0 0 32 32" width="32" xmlns="http://www.w3.org/2000/svg"><g fill="#e0e0e0"><path d="m8.601562 8.1875h9.257813c.367187 0 .664063.296875.664063.664062 0 .363282-.296876.660157-.664063.660157h-9.257813c-.367187 0-.664062-.296875-.664062-.660157 0-.367187.296875-.664062.664062-.664062zm0 0"/><path d="m8.601562 12.15625h9.257813c.367187 0 .664063.296875.664063.664062 0 .363282-.296876.660157-.664063.660157h-9.257813c-.367187 0-.664062-.296875-.664062-.660157 0-.367187.296875-.664062.664062-.664062zm0 0"/><path d="m8.601562 16.125h3.96875c.363282 0 .660157.296875.660157.664062 0 .363282-.296875.660157-.660157.660157h-3.96875c-.367187 0-.664062-.296875-.664062-.660157 0-.367187.296875-.664062.664062-.664062zm0 0"/><path d="m5.292969 2.894531c-1.464844 0-2.648438 1.183594-2.648438 2.648438v21.167969c0 1.464843 1.183594 2.644531 2.648438 2.644531h7.9375v-2.644531h-6.617188c-.730469 0-1.320312-.589844-1.320312-1.324219v-18.523438c0-.730469.589843-1.320312 1.320312-1.320312h13.230469c.734375 0 1.324219.589843 1.324219 1.320312v6.617188h2.648437v-7.9375c0-1.464844-1.183594-2.648438-2.648437-2.648438zm0 0"/><path d="m17.199219 16.125c-.734375 0-1.324219.589844-1.324219 1.324219v10.585937c0 .730469.589844 1.320313 1.324219 1.320313h10.585937c.730469 0 1.320313-.589844 1.320313-1.320313v-10.585937c0-.734375-.589844-1.324219-1.320313-1.324219zm1.984375 2.648438h6.617187c.363281 0 .660157.292968.660157.660156v6.617187c0 .363281-.296876.660157-.660157.660157h-6.617187c-.367188 0-.660156-.296876-.660156-.660157v-6.617187c0-.367188.292968-.660156.660156-.660156zm0 0"/></g></svg>

<svg xmlns="http://www.w3.org/2000/svg" xmlns:xlink="http://www.w3.org/1999/xlink" width="32px" height="32px" viewBox="0 0 32 32" version="1.1">
<g id="surface1">
     <defs>
  <style id="current-color-scheme" type="text/css">
   .ColorScheme-Text { color:#eeeeee; } .ColorScheme-Highlight { color:#424242; }
  </style>
 </defs>
<path style="fill:currentColor" class="ColorScheme-Text" d="M 8.601562 8.1875 L 17.859375 8.1875 C 18.226562 8.1875 18.523438 8.484375 18.523438 8.851562 C 18.523438 9.214844 18.226562 9.511719 17.859375 9.511719 L 8.601562 9.511719 C 8.234375 9.511719 7.9375 9.214844 7.9375 8.851562 C 7.9375 8.484375 8.234375 8.1875 8.601562 8.1875 Z M 8.601562 8.1875 "/>
     <defs>
  <style id="current-color-scheme" type="text/css">
   .ColorScheme-Text { color:#eeeeee; } .ColorScheme-Highlight { color:#424242; }
  </style>
 </defs>
<path style="fill:currentColor" class="ColorScheme-Text" d="M 8.601562 12.15625 L 17.859375 12.15625 C 18.226562 12.15625 18.523438 12.453125 18.523438 12.820312 C 18.523438 13.183594 18.226562 13.480469 17.859375 13.480469 L 8.601562 13.480469 C 8.234375 13.480469 7.9375 13.183594 7.9375 12.820312 C 7.9375 12.453125 8.234375 12.15625 8.601562 12.15625 Z M 8.601562 12.15625 "/>
     <defs>
  <style id="current-color-scheme" type="text/css">
   .ColorScheme-Text { color:#eeeeee; } .ColorScheme-Highlight { color:#424242; }
  </style>
 </defs>
<path style="fill:currentColor" class="ColorScheme-Text" d="M 8.601562 16.125 L 12.570312 16.125 C 12.933594 16.125 13.230469 16.421875 13.230469 16.789062 C 13.230469 17.152344 12.933594 17.449219 12.570312 17.449219 L 8.601562 17.449219 C 8.234375 17.449219 7.9375 17.152344 7.9375 16.789062 C 7.9375 16.421875 8.234375 16.125 8.601562 16.125 Z M 8.601562 16.125 "/>
     <defs>
  <style id="current-color-scheme" type="text/css">
   .ColorScheme-Text { color:#eeeeee; } .ColorScheme-Highlight { color:#424242; }
  </style>
 </defs>
<path style="fill:currentColor" class="ColorScheme-Text" d="M 5.292969 2.894531 C 3.828125 2.894531 2.644531 4.078125 2.644531 5.542969 L 2.644531 26.710938 C 2.644531 28.175781 3.828125 29.355469 5.292969 29.355469 L 13.230469 29.355469 L 13.230469 26.710938 L 6.613281 26.710938 C 5.882812 26.710938 5.292969 26.121094 5.292969 25.386719 L 5.292969 6.863281 C 5.292969 6.132812 5.882812 5.542969 6.613281 5.542969 L 19.84375 5.542969 C 20.578125 5.542969 21.167969 6.132812 21.167969 6.863281 L 21.167969 13.480469 L 23.816406 13.480469 L 23.816406 5.542969 C 23.816406 4.078125 22.632812 2.894531 21.167969 2.894531 Z M 5.292969 2.894531 "/>
     <defs>
  <style id="current-color-scheme" type="text/css">
   .ColorScheme-Text { color:#eeeeee; } .ColorScheme-Highlight { color:#424242; }
  </style>
 </defs>
<path style="fill:currentColor" class="ColorScheme-Text" d="M 17.199219 16.125 C 16.464844 16.125 15.875 16.714844 15.875 17.449219 L 15.875 28.035156 C 15.875 28.765625 16.464844 29.355469 17.199219 29.355469 L 27.785156 29.355469 C 28.515625 29.355469 29.105469 28.765625 29.105469 28.035156 L 29.105469 17.449219 C 29.105469 16.714844 28.515625 16.125 27.785156 16.125 Z M 19.183594 18.773438 L 25.800781 18.773438 C 26.164062 18.773438 26.460938 19.066406 26.460938 19.433594 L 26.460938 26.050781 C 26.460938 26.414062 26.164062 26.710938 25.800781 26.710938 L 19.183594 26.710938 C 18.816406 26.710938 18.523438 26.414062 18.523438 26.050781 L 18.523438 19.433594 C 18.523438 19.066406 18.816406 18.773438 19.183594 18.773438 Z M 19.183594 18.773438 "/>
</g>
</svg>
